lib/svg/package.svg

<svg xmlns="http://www.w3.org/2000/svg" width="16" height="16" viewBox="0 0 16 16"><path d="M1 4.27v7.47c0 .45.3.84.75.97l6.5 1.73c.16.05.34.05.5 0l6.5-1.73c.45-.13.75-.52.75-.97V4.27c0-.45-.3-.84-.75-.97l-6.5-1.74a1.4 1.4 0 0 0-.5 0L1.75 3.3c-.45.13-.75.52-.75.97zm7 9.09l-6-1.59V5l6 1.61v6.75zM2 4l2.5-.67L11 5.06l-2.5.67L2 4zm13 7.77l-6 1.59V6.61l2-.55V8.5l2-.53V5.53L15 5v6.77zm-2-7.24L6.5 2.8l2-.53L15 4l-2 .53z"/></svg>

<?xml version="1.0" encoding="UTF-8" standalone="no"?>
<svg width="16px" height="16px" viewBox="0 0 16 16" version="1.1" xmlns="http://www.w3.org/2000/svg" xmlns:xlink="http://www.w3.org/1999/xlink">
    <!-- Generator: Sketch 3.8.3 (29802) - http://www.bohemiancoding.com/sketch -->
    <title>package</title>
    <desc>Created with Sketch.</desc>
    <defs></defs>
    <g id="Octicons" stroke="none" stroke-width="1" fill="none" fill-rule="evenodd">
        <g id="package" fill="#000000">
            <path d="M1,4.27 L1,11.74 C1,12.19 1.3,12.58 1.75,12.71 L8.25,14.44 C8.41,14.49 8.59,14.49 8.75,14.44 L15.25,12.71 C15.7,12.58 16,12.19 16,11.74 L16,4.27 C16,3.82 15.7,3.43 15.25,3.3 L8.75,1.56 C8.59,1.53 8.41,1.53 8.25,1.56 L1.75,3.3 C1.3,3.43 1,3.82 1,4.27 L1,4.27 Z M8,13.36 L2,11.77 L2,5 L8,6.61 L8,13.36 L8,13.36 Z M2,4 L4.5,3.33 L11,5.06 L8.5,5.73 L2,4 L2,4 Z M15,11.77 L9,13.36 L9,6.61 L11,6.06 L11,8.5 L13,7.97 L13,5.53 L15,5 L15,11.77 L15,11.77 Z M13,4.53 L6.5,2.8 L8.5,2.27 L15,4 L13,4.53 L13,4.53 Z" id="Shape"></path>
        </g>
    </g>
</svg>
